tenants/kidsweek/icons/channel_tiktok.svg

<svg fill="none" height="32" viewBox="0 0 32 32" width="32" xmlns="http://www.w3.org/2000/svg" xmlns:xlink="http://www.w3.org/1999/xlink"><clipPath id="a"><path d="m0 0h32v32h-32z"/></clipPath><g clip-path="url(#a)"><circle cx="16" cy="16" fill="#e4003a" r="16"/><path d="m20.6 10.1179c-.6835-.78043-1.0603-1.78262-1.06-2.82005h-3.09v12.40005c-.0238.671-.3071 1.3066-.7902 1.7729s-1.1283.727-1.7998.7271c-1.42 0-2.6-1.16-2.6-2.6 0-1.72 1.66-3.01 3.37-2.48v-3.16c-3.45-.46-6.46997 2.22-6.46997 5.64 0 3.33 2.75997 5.7 5.68997 5.7 3.14 0 5.69-2.55 5.69-5.7v-6.29c1.253.8998 2.7574 1.3826 4.3 1.38v-3.09s-1.88.09-3.24-1.48z" fill="#fff"/></g></svg>

<svg width="32" height="32" viewBox="0 0 32 32" fill="none" xmlns="http://www.w3.org/2000/svg">
<g clip-path="url(#clip0_2137_28857)">
<circle cx="16" cy="16" r="16" fill="#E4003A"/>
<path d="M20.6 10.1179C19.9165 9.33747 19.5397 8.33528 19.54 7.29785H16.45V19.6979C16.4262 20.3689 16.1429 21.0045 15.6598 21.4708C15.1767 21.9371 14.5315 22.1978 13.86 22.1979C12.44 22.1979 11.26 21.0379 11.26 19.5979C11.26 17.8779 12.92 16.5879 14.63 17.1179V13.9579C11.18 13.4979 8.16003 16.1779 8.16003 19.5979C8.16003 22.9279 10.92 25.2979 13.85 25.2979C16.99 25.2979 19.54 22.7479 19.54 19.5979V13.3079C20.793 14.2077 22.2974 14.6905 23.84 14.6879V11.5979C23.84 11.5979 21.96 11.6879 20.6 10.1179Z" fill="white"/>
</g>
<defs>
<clipPath id="clip0_2137_28857">
<rect width="32" height="32" fill="white"/>
</clipPath>
</defs>
</svg>
